components/icons/Design.svg

<svg width="64" height="64" viewBox="0 0 64 64" fill="none" xmlns="http://www.w3.org/2000/svg">
<path fill-rule="evenodd" clip-rule="evenodd" d="M32 64C49.6731 64 64 49.6731 64 32C64 14.3269 49.6731 0 32 0C14.3269 0 0 14.3269 0 32C0 49.6731 14.3269 64 32 64ZM17.3183 41.0702C18.892 36.9234 21.6655 35.7595 24.7215 35.563L31.4254 41.1495C31.4336 41.2279 31.4447 41.3056 31.4558 41.3833C31.4775 41.5357 31.4993 41.688 31.4993 41.8449C31.4993 47.666 27.5277 51 21.7493 51C14.8885 51 11.9993 45.4867 11.9985 39.2139C12.1551 39.3208 12.3941 39.4981 12.6819 39.7115C13.7649 40.5149 15.5384 41.8304 16.207 41.8304C16.709 41.8304 17.1393 41.5433 17.3183 41.0702ZM43.8147 13.253C44.6404 12.5111 45.7228 12 46.8776 12C49.0188 12 50.9993 13.5722 50.9993 15.7743C50.9993 17.0037 50.5026 18.1844 49.9405 19.2775C41.3292 35.349 38.587 38.8125 33.856 38.8125C33.2657 38.8125 32.6997 38.7188 32.1505 38.5817L27.2892 34.5309C26.8718 33.6214 26.6243 32.6266 26.6243 31.583C26.6243 28.3498 27.6346 27.4661 35.7276 20.3875C37.8828 18.5025 40.5403 16.1781 43.8147 13.253Z" fill="#0068A7"/>
</svg>

<svg xmlns="http://www.w3.org/2000/svg" viewBox="0 0 64 64">
  <path fill-rule="evenodd" d="M32 64c17.673 0 32-14.327 32-32C64 14.327 49.673 0 32 0 14.327 0 0 14.327 0 32c0 17.673 14.327 32 32 32zM17.318 41.07c1.574-4.147 4.348-5.31 7.403-5.507l6.704 5.586c.009.079.02.157.03.234.022.153.044.305.044.462 0 5.821-3.971 9.155-9.75 9.155C14.89 51 12 45.487 12 39.214c.156.107.395.284.683.498 1.083.803 2.856 2.118 3.525 2.118.502 0 .932-.287 1.111-.76zm26.497-27.817C44.64 12.511 45.723 12 46.878 12c2.14 0 4.121 1.572 4.121 3.774 0 1.23-.496 2.41-1.059 3.503-8.61 16.072-11.353 19.535-16.084 19.535-.59 0-1.156-.093-1.706-.23l-4.86-4.051a7.053 7.053 0 0 1-.666-2.948c0-3.233 1.01-4.117 9.104-11.195 2.155-1.886 4.812-4.21 8.087-7.135z"/>
</svg>
